build/images/content/icons/icon-2.svg

<svg width="100" height="100" viewBox="0 0 100 100" fill="none" xmlns="http://www.w3.org/2000/svg">
<path d="M87.9906 31.8277L86.3206 23.6466L78.9806 16.368L70.7306 14.7119L16.1406 68.8359L33.4106 85.9617L87.9906 31.8277Z" stroke="#393C4C" stroke-width="2" stroke-linecap="round" stroke-linejoin="round"/>
<path d="M79.085 25.9262L83.8516 21.1996L81.44 18.8082L76.6735 23.5348L79.085 25.9262Z" fill="#393C4C"/>
<path d="M74.5995 27.9908C74.4032 27.7595 74.2789 27.4765 74.242 27.1763C74.2051 26.8761 74.2571 26.5718 74.3917 26.3004C74.5262 26.0291 74.7375 25.8024 74.9997 25.6482C75.262 25.494 75.5638 25.4188 75.8684 25.4319C76.173 25.445 76.4671 25.5457 76.7149 25.7219C76.9627 25.898 77.1535 26.1419 77.2639 26.4238C77.3743 26.7056 77.3996 27.0133 77.3367 27.3092C77.2737 27.6051 77.1253 27.8764 76.9095 28.09C76.7516 28.2346 76.5664 28.3467 76.3646 28.42C76.1628 28.4933 75.9484 28.5263 75.7337 28.517C75.519 28.5078 75.3083 28.4566 75.1137 28.3663C74.919 28.276 74.7443 28.1484 74.5995 27.9908Z" fill="#393C4C"/>
<path d="M81.1116 38.6499L63.8516 21.5344" stroke="#393C4C" stroke-width="2" stroke-linecap="round" stroke-linejoin="round"/>
<path d="M44.0513 75.4009L26.7812 58.2854" stroke="#393C4C" stroke-width="2" stroke-linecap="round" stroke-linejoin="round"/>
<path d="M40.2911 71.0576L34.9611 76.333L32.5611 76.2537L28.1211 80.6565" stroke="#393C4C" stroke-width="2" stroke-linejoin="round"/>
<path d="M31.1722 62.0134L25.8422 67.2989L25.9322 69.6789L21.4922 74.0818" stroke="#393C4C" stroke-width="2" stroke-linejoin="round"/>
<path d="M70.5211 48.8638L72.9811 41.0396L65.1211 43.5088L70.5211 48.8638Z" stroke="#393C4C" stroke-linecap="round" stroke-linejoin="round"/>
<path d="M72.9813 41.0394L73.0413 41.0989L75.5413 33.126L67.5312 35.6349L72.9813 41.0394Z" stroke="#393C4C" stroke-linecap="round" stroke-linejoin="round"/>
<path d="M36.03 66.8726L38.53 58.8896L30.52 61.3986L30.55 61.4382L36.03 66.8726Z" stroke="#393C4C" stroke-linecap="round" stroke-linejoin="round"/>
<path d="M62.5881 51.4622L65.0881 43.519L57.1681 45.9982L62.5881 51.3729L54.5781 53.8917L54.5881 53.9016L60.1481 59.4053L62.6481 51.4423L62.5881 51.4622Z" stroke="#393C4C" stroke-linecap="round" stroke-linejoin="round"/>
<path d="M62.0489 30.2014L54.1889 32.6607L59.5789 38.0157L51.6289 40.5047L57.0789 45.9092L57.1089 45.939L62.0489 30.2014Z" stroke="#393C4C" stroke-linecap="round" stroke-linejoin="round"/>
<path d="M67.5317 35.6355L70.0317 27.6624L62.0117 30.1713L62.0517 30.2011L67.5317 35.6355Z" stroke="#393C4C" stroke-linecap="round" stroke-linejoin="round"/>
<path d="M41.04 50.9165L46.54 56.3705L46.5801 56.4102L49.0801 48.4374L54.5801 53.8914L57.0801 45.9087L49.0701 48.4176L51.5701 40.4448L43.5501 42.9537L49.0501 48.4077L41.04 50.9165Z" stroke="#393C4C" stroke-linecap="round" stroke-linejoin="round"/>
<path d="M22.5981 63.9272L28.0281 69.3018L20.0781 71.8007L25.5281 77.1951L25.5881 77.2546L30.5481 61.4382L22.5981 63.9272Z" stroke="#393C4C" stroke-linecap="round" stroke-linejoin="round"/>
<path d="M44.0513 64.3628L36.0312 66.8717L41.4813 72.2762L41.5413 72.3357L44.0513 64.3628Z" stroke="#393C4C" stroke-linecap="round" stroke-linejoin="round"/>
<path d="M44.03 64.3433L46.54 56.3704L38.52 58.8792L38.53 58.8892L44.03 64.3433Z" stroke="#393C4C" stroke-linecap="round" stroke-linejoin="round"/>
<path d="M57.1699 45.998L65.0899 43.5189L65.0999 43.4892L65.1199 43.509L72.9799 41.0398L67.5299 35.6354L62.0499 30.2012L57.1099 45.9385L57.1699 45.998Z" stroke="#393C4C" stroke-linecap="round" stroke-linejoin="round"/>
<path d="M54.1914 32.6602L62.0514 30.2011L62.0114 30.1714L59.1914 27.3652L53.6914 32.8188L54.0214 32.7197L54.0714 32.5511L54.1914 32.6602Z" stroke="#393C4C" stroke-linecap="round" stroke-linejoin="round"/>
<path d="M70.5201 48.8642L70.6101 48.9535L70.4801 48.9932L70.3901 49.2808L75.8401 43.8759L73.0401 41.0991L72.9801 41.0396L70.5201 48.8642Z" stroke="#393C4C" stroke-linecap="round" stroke-linejoin="round"/>
<path d="M30.5499 61.438L25.5898 77.2544L41.4799 72.2764L36.0299 66.8721L30.5499 61.438Z" stroke="#393C4C" stroke-linecap="round" stroke-linejoin="round"/>
<path d="M22.6014 63.9268L30.5514 61.4379L30.5214 61.3983L27.6914 58.6021L22.1914 64.0557L22.4814 63.9565L22.5214 63.8375L22.6014 63.9268Z" stroke="#393C4C" stroke-linecap="round" stroke-linejoin="round"/>
<path d="M38.9784 80.2691L38.8984 80.5071L44.3384 75.1125L41.5384 72.3359L41.4784 72.2764L38.9984 80.1798L39.0584 80.2393L38.9784 80.2691Z" stroke="#393C4C" stroke-linecap="round" stroke-linejoin="round"/>
<path d="M33.0099 53.4163L33.0499 53.2873L32.8599 53.4758L41.0199 50.9263V50.9065L33.0099 53.4163Z" stroke="#393C4C" stroke-linecap="round" stroke-linejoin="round"/>
<path d="M41.0383 50.9165L49.0483 48.4075L43.5483 42.9532L43.5083 42.9136L38.2383 48.1398L41.0183 50.9066L41.0383 50.9165Z" stroke="#393C4C" stroke-linecap="round" stroke-linejoin="round"/>
<path d="M49.5586 69.936L49.6486 69.8567L49.5986 69.8666L52.0986 61.8939L54.8886 64.6506L60.1586 59.4248L60.1486 59.4049L54.5886 53.9014L49.5586 69.936Z" stroke="#393C4C" stroke-linecap="round" stroke-linejoin="round"/>
<path d="M64.5217 22.1987L62.0117 30.1716L70.0317 27.6627L64.5217 22.1987Z" stroke="#393C4C" stroke-linecap="round" stroke-linejoin="round"/>
<path d="M81.05 38.5905L75.54 33.1265L73.04 41.0994L81.05 38.5905Z" stroke="#393C4C" stroke-linecap="round" stroke-linejoin="round"/>
<path d="M36.0312 66.8726L44.0513 64.3636L44.0313 64.3438L38.5313 58.8896L36.0312 66.8726Z" stroke="#393C4C" stroke-linecap="round" stroke-linejoin="round"/>
<path d="M38.52 58.8795L33.02 53.4255L30.52 61.3982L38.53 58.8894L38.52 58.8795Z" stroke="#393C4C" stroke-linecap="round" stroke-linejoin="round"/>
<path d="M28.0301 69.3018L22.6001 63.9269L22.5201 63.8376L22.4801 63.9566L20.04 71.7512L20.08 71.8008L28.0301 69.3018Z" stroke="#393C4C" stroke-linecap="round" stroke-linejoin="round"/>
<path d="M49.5601 69.8273L44.0501 64.3633L41.54 72.3362L49.5601 69.8273Z" stroke="#393C4C" stroke-linecap="round" stroke-linejoin="round"/>
<path d="M31.11 82.7285L38.9801 80.2692L39.0601 80.2394L39.0001 80.1799L33.54 74.7754L31.04 82.7483L31.1001 82.7285V82.7185L31.11 82.7285Z" stroke="#393C4C" stroke-linecap="round" stroke-linejoin="round"/>
<path d="M59.5799 38.0154L54.1899 32.6606L54.0699 32.5515L54.0199 32.7201L51.5898 40.4647L51.6299 40.5044L59.5799 38.0154Z" stroke="#393C4C" stroke-linecap="round" stroke-linejoin="round"/>
<path d="M70.5199 48.864L65.1198 43.5091L65.0999 43.4893L65.0898 43.519L62.5898 51.4622L62.6498 51.4423V51.4324L62.6599 51.4423L70.4799 48.9929L70.6099 48.9533L70.5199 48.864Z" stroke="#393C4C" stroke-linecap="round" stroke-linejoin="round"/>
<path d="M49.0781 48.4373L46.5781 56.4102L54.5881 53.9013L54.5781 53.8914L49.0781 48.4373Z" stroke="#393C4C" stroke-linecap="round" stroke-linejoin="round"/>
<path d="M57.0801 45.9087L51.6301 40.5043L51.5901 40.4647L51.5701 40.4448L49.0701 48.4175L57.0801 45.9087Z" stroke="#393C4C" stroke-linecap="round" stroke-linejoin="round"/>
<path d="M48.7801 37.6785L43.59 42.8346L43.55 42.9536L51.5701 40.4449L48.7801 37.6785Z" stroke="#393C4C" stroke-linecap="round" stroke-linejoin="round"/>
<path d="M57.1681 45.9984L57.1081 45.9389L57.0781 45.9092L54.5781 53.8916L62.5881 51.3729L57.1681 45.9984Z" stroke="#393C4C" stroke-linecap="round" stroke-linejoin="round"/>
<path d="M62.6485 51.4425L60.1484 59.4055L60.1884 59.3956L65.4385 54.1993L62.6585 51.4425L62.6485 51.4326V51.4425Z" stroke="#393C4C" stroke-linecap="round" stroke-linejoin="round"/>
<path d="M20.04 71.751L20.02 71.7312L17.52 79.7039L25.53 77.1951L20.08 71.8006L20.04 71.751Z" stroke="#393C4C" stroke-linecap="round" stroke-linejoin="round"/>
<path d="M12.04 74.1212L12 74.2402L20.02 71.7314L17.23 68.9746L12.04 74.1212Z" stroke="#393C4C" stroke-linecap="round" stroke-linejoin="round"/>
<path d="M23.0312 85.1677L31.0413 82.6589L25.5913 77.2546L25.5313 77.1951L23.0312 85.1677Z" stroke="#393C4C" stroke-linecap="round" stroke-linejoin="round"/>
<path d="M31.1116 82.7289L31.1016 82.719V82.7289L28.6016 90.6919L28.6416 90.682L33.8816 85.4857L31.1116 82.7289Z" stroke="#393C4C" stroke-linecap="round" stroke-linejoin="round"/>
<path d="M41.04 50.9164L41.02 50.9065V50.9263L38.52 58.8794L46.54 56.3705L41.04 50.9164Z" stroke="#393C4C" stroke-linecap="round" stroke-linejoin="round"/>
<path d="M41.0217 50.907L38.2417 48.1401L33.0517 53.2871L33.0117 53.416L41.0217 50.907Z" stroke="#393C4C" stroke-linecap="round" stroke-linejoin="round"/>
<path d="M44.0312 64.3433L52.0513 61.8344L46.5813 56.41L46.5412 56.3704L44.0312 64.3433Z" stroke="#393C4C" stroke-linecap="round" stroke-linejoin="round"/>
<path d="M49.6016 69.8674L49.6516 69.8575L54.8915 64.6513L52.1016 61.8945L49.6016 69.8674Z" stroke="#393C4C" stroke-linecap="round" stroke-linejoin="round"/>
<path d="M83.5395 69.9742C85.1106 60.4287 78.5809 51.4274 68.9549 49.8694C59.3289 48.3114 50.2519 54.7866 48.6807 64.3322C47.1096 73.8777 53.6393 82.879 63.2653 84.437C72.8913 85.995 81.9683 79.5198 83.5395 69.9742Z" fill="white" stroke="#F91A2B" stroke-width="2" stroke-miterlimit="10"/>
<path d="M71.8257 67.0851L63.5897 72.1703C63.5314 72.206 63.4646 72.2257 63.396 72.2274C63.3275 72.2291 63.2597 72.2127 63.1997 72.18C63.1397 72.1472 63.0895 72.0992 63.0544 72.0409C63.0194 71.9826 63.0006 71.9161 63 71.8483V61.6981C63.0006 61.6303 63.0194 61.5638 63.0544 61.5055C63.0895 61.4472 63.1397 61.3992 63.1997 61.3664C63.2597 61.3336 63.3275 61.3173 63.396 61.319C63.4646 61.3207 63.5314 61.3404 63.5897 61.3761L71.8054 66.4411C71.8626 66.4727 71.9106 66.5185 71.9447 66.5739C71.9788 66.6294 71.9978 66.6926 71.9998 66.7574C72.0019 66.8223 71.9869 66.8866 71.9564 66.944C71.9259 67.0014 71.8809 67.05 71.8257 67.0851Z" fill="#F91A2B" stroke="#F91A2B" stroke-width="2" stroke-miterlimit="10"/>
</svg>

<svg width="100" height="100" fill="none" xmlns="http://www.w3.org/2000/svg"><path d="M87.99 31.828l-1.67-8.181-7.34-7.279-8.25-1.656-54.59 54.124 17.27 17.126 54.58-54.134z" stroke="#393C4C" stroke-width="2" stroke-linecap="round" stroke-linejoin="round"/><path d="M79.085 25.926l4.767-4.726-2.412-2.392-4.766 4.727 2.411 2.391zM74.6 27.99a1.551 1.551 0 01.4-2.342 1.58 1.58 0 011.715.074 1.559 1.559 0 01.622 1.587 1.554 1.554 0 01-.428.781 1.631 1.631 0 01-1.175.427 1.64 1.64 0 01-1.134-.526z" fill="#393C4C"/><path d="M81.112 38.65l-17.26-17.116M44.051 75.4l-17.27-17.115" stroke="#393C4C" stroke-width="2" stroke-linecap="round" stroke-linejoin="round"/><path d="M40.291 71.058l-5.33 5.275-2.4-.08-4.44 4.403m3.051-18.643l-5.33 5.286.09 2.38-4.44 4.403" stroke="#393C4C" stroke-width="2" stroke-linejoin="round"/><path d="M70.521 48.864l2.46-7.824-7.86 2.469 5.4 5.355zm2.46-7.824l.06.059 2.5-7.973-8.01 2.509 5.45 5.404zM36.03 66.873l2.5-7.983-8.01 2.509.03.04 5.48 5.434zm26.558-15.411l2.5-7.943-7.92 2.48 5.42 5.374-8.01 2.519.01.01 5.56 5.503 2.5-7.963-.06.02zm-.539-21.261l-7.86 2.46 5.39 5.355-7.95 2.489 5.45 5.404.03.03 4.94-15.738z" stroke="#393C4C" stroke-linecap="round" stroke-linejoin="round"/><path d="M67.532 35.636l2.5-7.974-8.02 2.51.04.03 5.48 5.433zM41.04 50.916l5.5 5.455.04.04 2.5-7.974 5.5 5.454 2.5-7.982-8.01 2.509 2.5-7.973-8.02 2.509 5.5 5.454-8.01 2.508zM22.598 63.927l5.43 5.375-7.95 2.499 5.45 5.394.06.06 4.96-15.817-7.95 2.49zm21.453.436l-8.02 2.509 5.45 5.404.06.06 2.51-7.973z" stroke="#393C4C" stroke-linecap="round" stroke-linejoin="round"/><path d="M44.03 64.343l2.51-7.973-8.02 2.51.01.01 5.5 5.453zm13.14-18.345l7.92-2.48.01-.029.02.02 7.86-2.47-5.45-5.404-5.48-5.434-4.94 15.737.06.06z" stroke="#393C4C" stroke-linecap="round" stroke-linejoin="round"/><path d="M54.191 32.66l7.86-2.459-.04-.03-2.82-2.806-5.5 5.454.33-.1.05-.168.12.11zM70.52 48.864l.09.09-.13.04-.09.287 5.45-5.405-2.8-2.777-.06-.06-2.46 7.825zM30.55 61.438l-4.96 15.816 15.89-4.978-5.45-5.404-5.48-5.434zm-7.949 2.489l7.95-2.49-.03-.039-2.83-2.796-5.5 5.454.29-.1.04-.119.08.09z" stroke="#393C4C" stroke-linecap="round" stroke-linejoin="round"/><path d="M38.978 80.27l-.08.237 5.44-5.395-2.8-2.776-.06-.06-2.48 7.904.06.06-.08.03zM33.01 53.416l.04-.129-.19.189 8.16-2.55v-.02l-8.01 2.51z" stroke="#393C4C" stroke-linecap="round" stroke-linejoin="round"/><path d="M41.038 50.916l8.01-2.508-5.5-5.455-.04-.04-5.27 5.227 2.78 2.767.02.01zm8.521 19.02l.09-.08-.05.01 2.5-7.972 2.79 2.757 5.27-5.226-.01-.02-5.56-5.504-5.03 16.035zm14.963-47.737l-2.51 7.973 8.02-2.51-5.51-5.463zM81.05 38.59l-5.51-5.464-2.5 7.973 8.01-2.508zM36.031 66.873l8.02-2.51-.02-.02-5.5-5.453-2.5 7.983zm2.489-7.993l-5.5-5.455-2.5 7.973 8.01-2.509-.01-.01zM28.03 69.302l-5.43-5.375-.08-.09-.04.12-2.44 7.794.04.05 7.95-2.5z" stroke="#393C4C" stroke-linecap="round" stroke-linejoin="round"/><path d="M49.56 69.827l-5.51-5.464-2.51 7.973 8.02-2.509zM31.11 82.728l7.87-2.459.08-.03-.06-.06-5.46-5.404-2.5 7.973.06-.02v-.01l.01.01zm28.47-44.713l-5.39-5.354-.12-.11-.05.17-2.43 7.744.04.04 7.95-2.49zm10.94 10.849l-5.4-5.355-.02-.02-.01.03-2.5 7.943.06-.02v-.01l.01.01 7.82-2.45.13-.039-.09-.089zm-21.442-.427l-2.5 7.973 8.01-2.509-.01-.01-5.5-5.454z" stroke="#393C4C" stroke-linecap="round" stroke-linejoin="round"/><path d="M57.08 45.909l-5.45-5.405-.04-.04-.02-.02-2.5 7.973 8.01-2.508z" stroke="#393C4C" stroke-linecap="round" stroke-linejoin="round"/><path d="M48.78 37.678l-5.19 5.157-.04.119 8.02-2.51-2.79-2.766zm8.388 8.32l-.06-.06-.03-.029-2.5 7.983 8.01-2.52-5.42-5.374zm5.48 5.445l-2.5 7.963.04-.01 5.25-5.197-2.78-2.756-.01-.01v.01zM20.04 71.751l-.02-.02-2.5 7.973 8.01-2.509-5.45-5.394-.04-.05zm-8 2.37l-.04.12 8.02-2.51-2.79-2.756-5.19 5.146zm10.991 11.047l8.01-2.51-5.45-5.403-.06-.06-2.5 7.973zm8.081-2.439l-.01-.01v.01l-2.5 7.963.04-.01 5.24-5.196-2.77-2.757zm9.928-31.813l-.02-.01v.02l-2.5 7.953 8.02-2.508-5.5-5.455z" stroke="#393C4C" stroke-linecap="round" stroke-linejoin="round"/><path d="M41.022 50.907l-2.78-2.767-5.19 5.147-.04.129 8.01-2.509zm3.009 13.436l8.02-2.509-5.47-5.424-.04-.04-2.51 7.973zm5.571 5.524l.05-.01 5.24-5.206-2.79-2.756-2.5 7.972z" stroke="#393C4C" stroke-linecap="round" stroke-linejoin="round"/><path d="M83.54 69.974c1.57-9.545-4.96-18.547-14.585-20.105-9.626-1.558-18.703 4.918-20.274 14.463-1.571 9.546 4.958 18.547 14.584 20.105 9.626 1.558 18.703-4.917 20.275-14.463z" fill="#fff" stroke="#F91A2B" stroke-width="2" stroke-miterlimit="10"/><path d="M71.826 67.085L63.59 72.17a.39.39 0 01-.536-.13.38.38 0 01-.054-.192v-10.15a.38.38 0 01.2-.332.39.39 0 01.39.01l8.215 5.065a.378.378 0 01.195.316.372.372 0 01-.174.328z" fill="#F91A2B" stroke="#F91A2B" stroke-width="2" stroke-miterlimit="10"/></svg>
